public/logos/coder.svg

<svg width="90" height="90" viewBox="0 0 90 90" fill="none" xmlns="http://www.w3.org/2000/svg">
<path d="M86.0158 41.5035C84.3783 41.5035 83.2874 40.5043 83.2874 38.4535V26.6741C83.2874 19.1543 80.3107 15 72.6213 15H69.0494V22.9405H70.141C73.167 22.9405 74.6057 24.6759 74.6057 27.7785V38.1906C74.6057 42.7129 75.8955 44.5535 78.7232 45.5C75.8955 46.3941 74.6057 48.2871 74.6057 52.8094C74.6057 55.3862 74.6057 57.9629 74.6057 60.5398C74.6057 62.6957 74.6057 64.7992 74.06 66.9551C73.5143 68.9535 72.6213 70.8466 71.3812 72.4766C70.6866 73.4234 69.8929 74.2121 69 74.9484V76H72.5717C80.2611 76 83.2377 71.8457 83.2377 64.3258V52.5465C83.2377 50.4431 84.2797 49.4965 85.9665 49.4965H88V41.5559H86.0158V41.5035Z" fill="white"/>
<path d="M60.5021 27H49.4481C49.1991 27 49 26.7714 49 26.4857V25.5143C49 25.2286 49.1991 25 49.4481 25H60.5519C60.8008 25 61 25.2286 61 25.5143V26.4857C61 26.7714 60.751 27 60.5021 27Z" fill="white"/>
<path d="M63.5 38H54.5001C54.2223 38 54 37.7714 54 37.4856V36.5144C54 36.2287 54.2223 36 54.5001 36H63.5C63.7779 36 64 36.2287 64 36.5144V37.4856C64 37.7143 63.7779 38 63.5 38Z" fill="white"/>
<path d="M66.5776 32H49.475C49.211 32 49 31.8857 49 31.7429V31.2571C49 31.1143 49.211 31 49.475 31H66.5247C66.7888 31 67 31.1143 67 31.2571V31.7429C67 31.8571 66.8416 32 66.5776 32Z" fill="white"/>
<path d="M36.7492 29.0371C37.8989 29.0371 39.0489 29.1385 40.1464 29.3919V27.3142C40.1464 24.375 41.7143 22.652 44.8503 22.652H46V15H42.2369C34.1358 15 31 19.0034 31 26.25V30C32.8292 29.3919 34.7631 29.0371 36.7492 29.0371Z" fill="white"/>
<path d="M69.8816 58.4956C69.0559 51.8793 63.9985 46.357 57.4961 45.1067C55.6899 44.7421 53.8836 44.6899 52.1291 45.0025C52.0775 45.0025 52.0775 44.9503 52.0259 44.9503C49.1876 38.9593 43.0981 35 36.4925 35C29.8868 35 23.849 38.8552 20.9589 44.8463C20.9073 44.8463 20.9073 44.8984 20.8557 44.8984C18.9979 44.6899 17.1401 44.7941 15.2823 45.263C8.8831 46.8258 4.03214 52.244 3.15482 58.8081C3.0516 59.4853 3 60.1626 3 60.7878C3 62.7673 4.34176 64.5908 6.30279 64.8513C8.72828 65.2161 10.8441 63.3404 10.7925 60.9441C10.7925 60.5793 10.7925 60.1626 10.8441 59.7979C11.257 56.4637 13.7857 53.6506 17.0885 52.869C18.1206 52.6085 19.1527 52.5566 20.1332 52.7129C23.2813 53.1297 26.3776 51.5145 27.7193 48.7014C28.6999 46.6175 30.2481 44.7941 32.3123 43.8042C34.5829 42.7101 37.1633 42.554 39.5373 43.3876C42.0142 44.2732 43.872 46.1486 45.0074 48.4929C46.1944 50.7853 46.762 52.4002 49.2908 52.7129C50.3228 52.869 53.2127 52.817 54.2966 52.7649C56.4124 52.7649 58.5282 53.4942 60.0249 55.0051C61.0053 56.0469 61.7278 57.3494 62.0375 58.8081C62.5019 61.1524 61.9343 63.4968 60.5409 65.268C59.5603 66.5184 58.2186 67.4561 56.722 67.8729C55.9995 68.0813 55.2769 68.1334 54.5544 68.1334C54.1417 68.1334 53.5741 68.1334 52.9032 68.1334C50.839 68.1334 46.4524 68.1334 43.1495 68.1334C40.879 68.1334 39.0727 66.3101 39.0727 64.0177V56.3074V48.7533C39.0727 48.1283 38.5567 47.6074 37.9374 47.6074H36.3376C33.1895 47.6593 30.6609 51.2021 30.6609 54.9529C30.6609 58.7039 30.6609 68.6544 30.6609 68.6544C30.6609 72.7179 33.912 76 37.9374 76C37.9374 76 55.8448 75.9478 56.1027 75.9478C60.2312 75.5311 64.0501 73.3952 66.6303 70.1131C69.2107 66.9351 70.3976 62.7673 69.8816 58.4956Z" fill="white"/>
</svg>

<svg width="90" height="90" viewBox="0 0 90 90" fill="none" xmlns="http://www.w3.org/2000/svg">
  <path d="M86.016 41.504c-1.638 0-2.729-1-2.729-3.05v-11.78c0-7.52-2.976-11.674-10.666-11.674H69.05v7.94h1.092c3.026 0 4.465 1.736 4.465 4.838v10.413c0 4.522 1.29 6.362 4.117 7.309-2.828.894-4.117 2.787-4.117 7.31v7.73c0 2.156 0 4.26-.546 6.415-.546 1.999-1.439 3.892-2.679 5.522-.694.946-1.488 1.735-2.381 2.471V76h3.572c7.69 0 10.666-4.154 10.666-11.674v-11.78c0-2.103 1.042-3.05 2.728-3.05H88v-7.94h-1.984v-.052ZM60.502 27H49.448c-.249 0-.448-.229-.448-.514v-.972c0-.285.2-.514.448-.514h11.104c.249 0 .448.229.448.514v.972a.523.523 0 0 1-.498.514ZM63.5 38h-9a.505.505 0 0 1-.5-.514v-.972c0-.285.222-.514.5-.514h9c.278 0 .5.229.5.514v.972c0 .228-.222.514-.5.514ZM66.578 32H49.475c-.264 0-.475-.114-.475-.257v-.486c0-.143.211-.257.475-.257h17.05c.264 0 .475.114.475.257v.486c0 .114-.158.257-.422.257ZM36.75 29.037c1.149 0 2.299.102 3.396.355v-2.078c0-2.939 1.568-4.662 4.704-4.662H46V15h-3.763C34.136 15 31 19.003 31 26.25V30c1.83-.608 3.763-.963 5.75-.963Z" fill="#fff"/>
  <path d="M69.882 58.496c-.826-6.617-5.884-12.139-12.386-13.39-1.806-.364-3.612-.416-5.367-.104-.051 0-.051-.052-.103-.052C49.188 38.96 43.098 35 36.492 35c-6.605 0-12.643 3.855-15.533 9.846-.052 0-.052.052-.103.052a15.51 15.51 0 0 0-5.574.365c-6.399 1.563-11.25 6.981-12.127 13.545A13.308 13.308 0 0 0 3 60.788c0 1.98 1.342 3.803 3.303 4.063 2.425.365 4.541-1.51 4.49-3.907 0-.365 0-.781.051-1.146.413-3.334 2.942-6.147 6.245-6.929a7.566 7.566 0 0 1 3.044-.156c3.148.417 6.245-1.199 7.586-4.012.98-2.084 2.53-3.907 4.593-4.897a9.405 9.405 0 0 1 7.225-.416c2.477.885 4.335 2.76 5.47 5.105 1.187 2.292 1.755 3.907 4.284 4.22 1.032.156 3.922.104 5.006.052 2.115 0 4.231.73 5.728 2.24a7.98 7.98 0 0 1 2.013 3.803c.464 2.344-.104 4.689-1.497 6.46-.98 1.25-2.322 2.188-3.819 2.605-.723.208-1.445.26-2.168.26H43.15c-2.27 0-4.076-1.823-4.076-4.115V48.753a1.15 1.15 0 0 0-1.136-1.146h-1.6c-3.148.052-5.676 3.595-5.676 7.346v13.701c0 4.064 3.251 7.346 7.276 7.346l18.166-.052c4.128-.417 7.947-2.553 10.527-5.835 2.58-3.178 3.768-7.346 3.252-11.617Z" fill="#fff"/>
</svg>
